packages/ffe-icons/icons/open/400/sm/garage_door.svg

<svg xmlns="http://www.w3.org/2000/svg" height="20" viewBox="0 -960 960 960" width="20"><path d="M252.211-144Q237-144 226.5-154.35 216-164.7 216-180v-344l-60 46q-12 9-26.5 7T106-485q-9-12-7.202-26.435 1.799-14.436 14.388-23.458L436-783q10-8 21.5-11t22.5-3q11 0 22.5 3t21.5 11l323.293 247.982Q859-526 861-511.5t-7 26.5q-9 12-23.5 14t-26.5-7l-60-46v344q0 15.3-10.289 25.65-10.29 10.35-25.5 10.35Q693-144 682.5-154.35 672-164.7 672-180v-372H288v372q0 15.3-10.289 25.65-10.29 10.35-25.5 10.35Zm120.072-48Q357-192 346.5-202.289q-10.5-10.29-10.5-25.5Q336-243 346.338-253.5 356.677-264 371.96-264h215.757Q603-264 613.5-253.711q10.5 10.29 10.5 25.5Q624-213 613.662-202.5 603.323-192 588.04-192H372.283Zm0-120Q357-312 346.5-322.289q-10.5-10.29-10.5-25.5Q336-363 346.338-373.5 356.677-384 371.96-384h215.757Q603-384 613.5-373.711q10.5 10.29 10.5 25.5Q624-333 613.662-322.5 603.323-312 588.04-312H372.283Zm0-120Q357-432 346.5-442.289q-10.5-10.29-10.5-25.5Q336-483 346.338-493.5 356.677-504 371.96-504h215.757Q603-504 613.5-493.711q10.5 10.29 10.5 25.5Q624-453 613.662-442.5 603.323-432 588.04-432H372.283ZM347-624h266L480-725 347-624Z"/></svg>

<svg xmlns="http://www.w3.org/2000/svg" height="20" viewBox="0 -960 960 960" width="20"><path d="M252.21-144q-15.21 0-25.71-10.35T216-180v-344l-60 46q-12 9-26.5 7T106-485q-9-12-7.2-26.44 1.8-14.43 14.39-23.45L436-783q10-8 21.5-11t22.5-3q11 0 22.5 3t21.5 11l323.29 247.98Q859-526 861-511.5t-7 26.5q-9 12-23.5 14t-26.5-7l-60-46v344q0 15.3-10.29 25.65Q723.42-144 708.21-144t-25.71-10.35Q672-164.7 672-180v-372H288v372q0 15.3-10.29 25.65Q267.42-144 252.21-144Zm120.07-48q-15.28 0-25.78-10.29-10.5-10.29-10.5-25.5t10.34-25.71q10.34-10.5 25.62-10.5h215.76q15.28 0 25.78 10.29 10.5 10.29 10.5 25.5t-10.34 25.71Q603.32-192 588.04-192H372.28Zm0-120q-15.28 0-25.78-10.29-10.5-10.29-10.5-25.5t10.34-25.71q10.34-10.5 25.62-10.5h215.76q15.28 0 25.78 10.29 10.5 10.29 10.5 25.5t-10.34 25.71Q603.32-312 588.04-312H372.28Zm0-120q-15.28 0-25.78-10.29-10.5-10.29-10.5-25.5t10.34-25.71q10.34-10.5 25.62-10.5h215.76q15.28 0 25.78 10.29 10.5 10.29 10.5 25.5t-10.34 25.71Q603.32-432 588.04-432H372.28ZM347-624h266L480-725 347-624Z"/></svg>
